X:83
T: WELLE GROSS WUNDER SCHAUEN WILL
N: Z0083
O: Europa, Mitteleuropa, Schweiz
R: Sagen - Lied, Romanze
M: 3/4
L: 1/8
K: C
G, | CB,C3D | B,^F,G,3
B, | FGFEC2 | C3D2
G, | CB,C3D | B,^F,G,3
B, | FGFEC2 | C3D2
C | EFG3C | DEF3
C | ECD2C2 | B,3C2

@@@ Tune index: 9841
